X: 11709
T: Eklunda
R: waltz
M: 3/4
K: Gmajor
M:3/2
gf/g/ bg dB|c/B/c/d/ e/g/e/c/ Ac|BA/B/ c/d/c/A/ B/c/B/G/|Ad d3z|
gf/g/ bg dB|c/B/c/d/ e/g/e/c/ Ac|BA/B/ c/d/c/A/ B/c/B/G/|A/B/A/F/ G3z:|
[B3/2G]B/ cc BB|[AF]d d4|[B3/2G]B/ cc BG|[A/F/]B/A/F/ D4|
[B3/2E]B/ cc BB|[AF]d d4|[GD]A/B/ c/d/c/A/ B/c/B/G/|A/B/A/F/ [G3D3]z:|

